FINK
CUT[DER PAPST LEBT HERRLICH IN DER WELT]
REG[Europa, Mitteleuropa, Deutschland]
KEY[F0220  08  C 4/4]
MEL[-5  1_.-1-1-1-3-1  -5__0_.
    -5  2_.1-7-6-5-4  -3__0
    -5-6-7  1_-5_2_-5_  3__0
    21-7  -6_2_1_-7_  1__0
    -5-6-7  1_-5_2_-5_  3__0
    21-7  -6_2_1_-7_  1__0_. //] >>
FCT[Trink - Lied, Liebe, Spott]
